X:197
T:The Outlaw of the Hills
N:"Slow" "collected by Hartnett"
B:O'Neill's 197
Z:Transcribed by henrik.norbeck@mailbox.swipnet.se
M:C
L:1/8
K:G
c|B2 AG G2 GA|Bc de dB AG|Be ef e2 dB|d2 ef g3 f|
ga ba g2 fg|eg fg dB z A|Be ef e2 dB|ea af ge dc||
B2 AG G2 GA|Bd e3/2GF/ ed BG|A2 AA cB z G|A2 GG G2 z||
